X:1
T:Mijatović, 76.76 D
T:Mijatović, 76.76 D
T:Lewis T. Hartsough, 1868
T:Public Domain Courtesy of the Cyber Hymnal™
C:Lewis T. Hartsough, 1868
Z:Public Domain
Z:Courtesy of the Cyber Hymnal™
%%score ( 1 2 ) 3
L:1/8
Q:1/4=107
M:4/4
K:C
V:1 treble 
V:2 treble 
V:3 bass 
V:1
 ([CE][DF]) | [EG]3 [EG] [EG]2 [EG]2 | [FA]2 [Fc]4 [Gc]2 | [^Fd]3 [Fc] [GB]2 [FA]2 | %4
 G6 ([CE][DF]) | [EG]3 [EG] [EG]2 [EG]2 | [FA]2 [Fc]4 [Ec]2 | [Fd]3 [Ec] [Ge]2 [Fd]2 | [Ec]6 (cB) | %9
 [FA]2 [FA]2 [FA]2 [FA]2 | [EG]2 [EG]4 [EG]2 | [FA]3 [FA] [EG]2 [CE]2 | [B,G]6 ([CE][DF]) | %13
 [EG]3 [EG] [EG]2 [EG]2 | [FA]2 [Fc]4 [Ec]2 | [Fd]3 [Ec] [Ge]2 [Fd]2 | [Ec]6 |] %17
V:2
 x2 | x8 | x8 | x8 | G6 x2 | x8 | x8 | x8 | x6 E2 | x8 | x8 | x8 | x8 | x8 | x8 | x8 | x6 |] %17
V:3
 [C,G,]2 | [C,C]3 [C,C] [C,C]2 [C,C]2 | [F,C]2 [F,A,]4 [E,G,]2 | [D,A,]3 [D,A,] [D,D]2 [D,C]2 | %4
 [G,,B,]6 [C,G,]2 | [C,C]3 [C,C] [C,C]2 [C,C]2 | [F,C]2 [F,A,]4 [A,C]2 | %7
 [G,B,]3 [G,C] [G,C]2 [G,B,]2 | [C,C]6 [C,C]2 | [F,C]2 [F,C]2 [F,C]2 [F,C]2 | %10
 [C,C]2 [C,C]4 [C,C]2 | [F,C]3 [F,C] [C,C]2 [C,G,]2 | [G,,G,]6 [C,G,]2 | %13
 [C,C]3 [C,C] [C,C]2 [C,C]2 | [F,C]2 [F,A,]4 [A,C]2 | [G,B,]3 [G,C] [G,C]2 [G,B,]2 | [C,C]6 |] %17

